X:19
T:Lichtmann 19
C:J. Dowland
M:C
L:1/8
Q:"Moderato" 1/4=104
K:D
"_mp dolce"z2F>GA4|z2A2B2A2|G3GF4|z2A2A2G2|F2F2E4|z2E2F2D2|
E3EE4||zA,!tenuto!D2zB,!tenuto!E2|zC!tenuto!F2zD!tenuto!G2|zEA6-|A4-AAGF|E3F EDD2-|DC/B,/C2D4||
zA,!tenuto!D2 z/ (B,/C/D/)!tenuto!E2|zC!tenuto!F2z(A/G/)!tenuto!G2|zEA6-|A4-AA (G/A/)G/F/|E3F EDD2-|DC/B,/ (D/C/)B,/C/D4|]

